X: 5441
T: Bumper Squire Jones
R: waltz
M: 3/4
K: Dmajor
|:A/G/|FED d2 D|F/G/AD GBA|BEF G2 A|FED d2 e|
fed edc|Bcd AB/c/e|dd/d/d Bec|dD/D/D D2:|
|:f/g/|afd dfa|bge efg|a/g/fd e/f/ed|cec A2 g|
~f3 geg|~f3 geg|fed cBc|dD/D/D D2:|

